apps/sim/public/landing/card-right.svg

<svg fill="none" height="470" viewBox="0 0 471 470" width="471" xmlns="http://www.w3.org/2000/svg"><path d="m471 94.274v30h-105.12c-4.418 0-8 3.582-8 8v93.221c0 4.418-3.582 8-8 8h-130.38c-4.418 0-8 3.582-8 8v220.005c0 4.418-3.582 8-8 8h-195c-4.418 0-8-3.582-8-8v-304.226c0-4.418 3.582-8 8-8h175.5c4.418 0 8-3.582 8-8v-39c0-4.418 3.582-8 8-8z" fill="#1c1c1c" stroke="#323232" stroke-opacity=".4"/></svg>

<svg width="471" height="470" viewBox="0 0 471 470" fill="none" xmlns="http://www.w3.org/2000/svg">
<path d="M471 94.274L471 124.274L365.88 124.274C361.462 124.274 357.88 127.856 357.88 132.274L357.88 225.495C357.88 229.913 354.298 233.495 349.88 233.495L219.5 233.495C215.082 233.495 211.5 237.077 211.5 241.495L211.5 461.5C211.5 465.918 207.918 469.5 203.5 469.5L8.5 469.5C4.082 469.5 0.5 465.918 0.5 461.5L0.5 157.274C0.5 152.856 4.082 149.274 8.5 149.274L184 149.274C188.418 149.274 192 145.692 192 141.274L192 102.274C192 97.856 195.582 94.274 200 94.274L471 94.274Z" fill="#1C1C1C" stroke="#323232" stroke-opacity="0.4" stroke-width="1"/>
</svg>
